X: 10888
T: Drover Lads
R: jig
M: 6/8
K: Gmajor
B|:GBd g3|agf g2 e|dBB B2e|dBB B2A|
GBd g3|agf g2 e|dBA A2 e|dBA A2 B:|
|:GBd dBd|ege dBG|dBB B2e|dBB B2A|
GBd dBd|ege dBG|dBA A2e|dBA A2 B:|
|:GBB gBB|aBB bBB|dBB B2 e|dBB B2 A|
GBB gBB|aBB bBB|dBA A2 e|1 dBA A2 B:|2 dBA A2 g||
|:bag agf|gfe efg|dBB B2 e|dBB B2 g|
bag agf|gfe efg|dBA A2 e|1 dBA A2 g:|2 dBA A3||

